svg/location_enter.svg

<svg xmlns="http://www.w3.org/2000/svg" viewBox="0 0 24 24"><path d="m14 12-4-4v3H2v2h8v3m12-4a10 10 0 0 1-19.54 3h2.13a8 8 0 1 0 0-6H2.46A10 10 0 0 1 22 12"/></svg>

<?xml version="1.0" encoding="UTF-8"?><!DOCTYPE svg PUBLIC "-//W3C//DTD SVG 1.1//EN" "http://www.w3.org/Graphics/SVG/1.1/DTD/svg11.dtd"><svg xmlns="http://www.w3.org/2000/svg" xmlns:xlink="http://www.w3.org/1999/xlink" version="1.1" id="mdi-location-enter" width="24" height="24" viewBox="0 0 24 24"><path d="M14 12L10 8V11H2V13H10V16M22 12A10 10 0 0 1 2.46 15H4.59A8 8 0 1 0 4.59 9H2.46A10 10 0 0 1 22 12Z" /></svg>
